X:1
T:F minor Walter Janes, 1803
T:Isaac Watts, 1719 (Psalm 90, Part 1)         88. 88. (L. M.)
T:Dissolution
T:Transcribed from The Massachusetts Harmony, 1803.
%%score [ 1 2 3 ]
L:1/8
Q:1/4=80
M:4/4
K:Ab
V:1 treble nm="Tr." snm="Tr."
V:2 treble-8 nm="T." snm="T."
V:3 bass nm="B." snm="B."
V:1
 c2 A2 A2 | G2 G2 G3 F | =E6 A2 | c2 dc B4- | B2 AB cd cB | c6 c2 | ce =dc B4- | B2 A2 cf dB | %8
w: 1.~Death, like an|ov- er- flow- ing|stream, Sweeps|us a- * way;|* our * life's * a *|dream, An|emp- * ty * tale,|* a mor- * ning *|
w: 2.~Our age to|seven- ty years is|set; How|short the * time!|* How * frail * the *|state! And|if * to * eigh-|* ty we * ar- *|
 e6 d2 | c2 cd e3 d | c2 c2 c4 |] %11
w: flower, Cut|down and * with- ered|in an hour.|
w: rive, We|ra- ther * sigh and|groan than live.|
V:2
 F2 A2 A2 | B2 B2 e3 f | c6 F2 | AB/c/ BA G4- | G2 AG Ff =e/f/g | f6 e2 | e2 =d2 e4- | %7
w: 3.~But O how|oft thy wrath ap-|pears, And|cuts * * off * our|* ex- * pec- * ted * *|years! Thy|wrath a- wakes|
w: 4.~Teach us, O|Lord, how frail is|man, And|kind- * * ly * leng-|* then * out * our * *|span, Till|a wise care|
 e2 c2 c2 (3Bcd | c6 f2 | A2 AB c>de/d/ c/B/ | A2 G2 F4 |] %11
w: * our hum- ble * *|dread; We|fear the * power * * * that *|strikes us dead.|
w: * of pi- e- * *|ty Fit|us to * die, * * * and *|dwell with thee.|
V:3
 F,2 F,2 F,2 | E,2 E,2 E,3 D, | C,6 F,2 | F,2 B,,2 E,4- | E,2 F,2 A,B, C2 | F,6 A,2 | %6
 A,2 B,2 E,4- | E,2 F,2 F,2 G,2 | C,6 B,,2 | A,,2 A,2 E,3 F, | %10
"^____________________________________________\nEdited by B. C. Johnston, 2016\n  1. The first two measures moved two quarter-notes left, to avoid a fermata on the first note of measure 3.\n  2. Grace notes following have been converted to tuplets." F,2 C,2 [F,,F,]4 |] %11

